Sources/FrostedUI/Resources/Icons.xcassets/download32.imageset/download-32.svg

<svg width="32" height="32" viewBox="0 0 32 32" fill="none" xmlns="http://www.w3.org/2000/svg" data-fui-icon="true">
  <path
    d="M25.666 27.584C26.0802 27.584 26.416 27.9198 26.416 28.334C26.4156 28.7479 26.08 29.084 25.666 29.084H6.33301C5.91914 29.0839 5.58338 28.7478 5.58301 28.334C5.58301 27.9199 5.91891 27.5841 6.33301 27.584H25.666ZM16 2.91699C16.4141 2.91717 16.75 3.25289 16.75 3.66699V21.5225L21.1357 17.1367C21.4286 16.8439 21.9034 16.844 22.1963 17.1367C22.4891 17.4296 22.4892 17.9044 22.1963 18.1973L17.4727 22.9209C16.6591 23.7341 15.3398 23.7343 14.5264 22.9209L9.80273 18.1973C9.50994 17.9045 9.51015 17.4296 9.80273 17.1367C10.0956 16.8438 10.5704 16.8438 10.8633 17.1367L15.25 21.5234V3.66699C15.25 3.25286 15.5859 2.91712 16 2.91699Z"
    fill="currentColor"
  />
</svg>

<svg xmlns="http://www.w3.org/2000/svg" width="32" height="32" fill="none" data-fui-icon="true" viewBox="0 0 32 32"><path fill="currentColor" d="M25.666 27.584a.75.75 0 0 1 0 1.5H6.333a.75.75 0 0 1 0-1.5zM16 2.917a.75.75 0 0 1 .75.75v17.856l4.386-4.386a.75.75 0 0 1 1.06 1.06l-4.723 4.724a2.084 2.084 0 0 1-2.947 0l-4.723-4.724a.75.75 0 0 1 1.06-1.06l4.387 4.386V3.667a.75.75 0 0 1 .75-.75"/></svg>
